packages/symbols/svgs/solid/twitter-solid.svg

<svg width="16" height="16" viewBox="0 0 16 16" xmlns="http://www.w3.org/2000/svg"><g clip-path="url(#a)"><path d="M16 3c-.6.3-1.2.4-1.9.5.7-.4 1.2-1 1.4-1.8-.6.4-1.3.6-2.1.8-.6-.6-1.5-1-2.4-1-1.7 0-3.2 1.5-3.2 3.3 0 .3 0 .5.1.7-2.7-.1-5.2-1.4-6.8-3.4-.3.5-.4 1-.4 1.7 0 1.1.6 2.1 1.5 2.7-.5 0-1-.2-1.5-.4C.7 7.7 1.8 9 3.3 9.3c-.3.1-.6.1-.9.1-.2 0-.4 0-.6-.1.4 1.3 1.6 2.3 3.1 2.3-1.1.9-2.5 1.4-4.1 1.4H0c1.5.9 3.2 1.5 5 1.5 6 0 9.3-5 9.3-9.3v-.4C15 4.3 15.6 3.7 16 3Z"/></g><defs><clipPath id="a"><path fill="#fff" d="M0 0h16v16H0z"/></clipPath></defs></svg>

<svg width="16" height="16" viewBox="0 0 16 16" fill="none" xmlns="http://www.w3.org/2000/svg">
<g clip-path="url(#clip0_587_2533)">
<path d="M16 3C15.4 3.3 14.8 3.4 14.1 3.5C14.8 3.1 15.3 2.5 15.5 1.7C14.9 2.1 14.2 2.3 13.4 2.5C12.8 1.9 11.9 1.5 11 1.5C9.3 1.5 7.8 3 7.8 4.8C7.8 5.1 7.8 5.3 7.9 5.5C5.2 5.4 2.7 4.1 1.1 2.1C0.8 2.6 0.7 3.1 0.7 3.8C0.7 4.9 1.3 5.9 2.2 6.5C1.7 6.5 1.2 6.3 0.7 6.1C0.7 7.7 1.8 9 3.3 9.3C3 9.4 2.7 9.4 2.4 9.4C2.2 9.4 2 9.4 1.8 9.3C2.2 10.6 3.4 11.6 4.9 11.6C3.8 12.5 2.4 13 0.8 13C0.5 13 0.3 13 0 13C1.5 13.9 3.2 14.5 5 14.5C11 14.5 14.3 9.5 14.3 5.2C14.3 5.1 14.3 4.9 14.3 4.8C15 4.3 15.6 3.7 16 3Z" fill="black"/>
</g>
<defs>
<clipPath id="clip0_587_2533">
<rect width="16" height="16" fill="white"/>
</clipPath>
</defs>
</svg>
